chrome/icons/sparkle.svg

<svg height="16" viewBox="64 64 896 896" width="16" xmlns="http://www.w3.org/2000/svg" xmlns:xlink="http://www.w3.org/1999/xlink">
  <path d="M64,383C64,369 68.0833,356.167 76.25,344.5C84.4167,332.833 95.1667,324.833 108.5,320.5L197.5,292C208.167,288.333 218.333,283.333 228,277C237.667,270.667 246.333,263.667 254,256C270.667,239.333 282.5,220.333 289.5,199L318.5,109.5C322.833,96.1667 330.917,85.2501 342.75,76.75C354.583,68.2501 367.5,64.0001 381.5,64C395.5,64.0001 408.417,68.0001 420.25,76C432.083,84.0001 440.333,94.8334 445,108.5L474,197C481,219 493,238.5 510,255.5C526.333,272.167 545.833,284.167 568.5,291.5L656.5,320.5C670.833,325.167 682.333,333.167 691,344.5C699.667,355.833 704,369.167 704,384.5C704,398.167 699.833,410.917 691.5,422.75C683.167,434.583 672.5,442.667 659.5,447L570.5,476C548.5,483 529,495 512,512C501.333,522.667 492.75,534.833 486.25,548.5C479.75,562.167 474.25,576.167 469.75,590.5C465.25,604.833 461,618.75 457,632.25C453,645.75 448,657.833 442,668.5C436,679.167 428.5,687.75 419.5,694.25C410.5,700.75 398.667,704 384,704C370,704 357.083,699.917 345.25,691.75C333.417,683.583 325.333,672.833 321,659.5L292,570.5C289.333,562.167 286.083,554.25 282.25,546.75C278.417,539.25 273.833,532.167 268.5,525.5C257.167,511.167 244.25,499.833 229.75,491.5C215.25,483.167 200.5,476.333 185.5,471C170.5,465.667 155.667,461.083 141,457.25C126.333,453.417 113.333,448.583 102,442.75C90.6667,436.917 81.5,429.5 74.5,420.5C67.5,411.5 64,399 64,383ZM638.5,386.5C613.167,376.833 588.917,367.917 565.75,359.75C542.583,351.583 521.167,341.583 501.5,329.75C481.833,317.917 464.417,303.25 449.25,285.75C434.083,268.25 422,245.333 413,217L384.5,129L351,217C345,233 338,247.833 330,261.5C322,275.167 312,288.167 300,300.5C288.667,311.833 275.917,322.083 261.75,331.25C247.583,340.417 232.833,347.5 217.5,352.5L129,381C154,390.667 178,399.583 201,407.75C224,415.917 245.167,425.917 264.5,437.75C283.833,449.583 301.083,464.333 316.25,482C331.417,499.667 343.5,522.5 352.5,550.5L381,638.5L414.5,550.5C426.833,518.167 444.083,490.167 466.25,466.5C488.417,442.833 516.333,425.667 550,415ZM576,766C576,755.667 579.333,746.167 586,737.5C592.667,728.833 600.833,722.833 610.5,719.5L660,703.5C671.333,699.833 680.167,694.167 686.5,686.5C692.833,678.833 697.917,670.25 701.75,660.75C705.583,651.25 708.833,641.5 711.5,631.5C714.167,621.5 717.583,612.417 721.75,604.25C725.917,596.083 731.417,589.333 738.25,584C745.083,578.667 754.667,576 767,576C777.667,576 787.583,579.167 796.75,585.5C805.917,591.833 812.167,600.167 815.5,610.5C817.5,617.167 819.417,623.917 821.25,630.75C823.083,637.583 825.167,644.25 827.5,650.75C829.833,657.25 832.667,663.583 836,669.75C839.333,675.917 843.5,681.5 848.5,686.5C853.833,692.167 860.333,696.583 868,699.75C875.667,702.917 883.667,705.833 892,708.5C900.333,711.167 908.583,713.833 916.75,716.5C924.917,719.167 932.167,722.583 938.5,726.75C944.833,730.917 950,736.25 954,742.75C958,749.25 960,757.5 960,767.5C960,778.5 956.917,788.5 950.75,797.5C944.583,806.5 936.167,812.833 925.5,816.5C919.167,818.5 912.583,820.417 905.75,822.25C898.917,824.083 892.083,826.167 885.25,828.5C878.417,830.833 871.917,833.667 865.75,837C859.583,840.333 854,844.5 849,849.5C841,857.833 835.083,868.25 831.25,880.75C827.417,893.25 823.417,905.417 819.25,917.25C815.083,929.083 809.333,939.167 802,947.5C794.667,955.833 783.333,960 768,960C757.333,960 747.417,956.833 738.25,950.5C729.083,944.167 722.833,935.833 719.5,925.5C717.5,919.5 715.583,913 713.75,906C711.917,899 709.833,892.083 707.5,885.25C705.167,878.417 702.333,871.833 699,865.5C695.667,859.167 691.667,853.667 687,849C681,843.333 674.167,838.833 666.5,835.5C658.833,832.167 650.917,829.25 642.75,826.75C634.583,824.25 626.5,821.75 618.5,819.25C610.5,816.75 603.333,813.417 597,809.25C590.667,805.083 585.583,799.583 581.75,792.75C577.917,785.917 576,777 576,766ZM867.5,768C853.167,763.667 840.75,758.583 830.25,752.75C819.75,746.917 810.667,740.083 803,732.25C795.333,724.417 788.667,715.25 783,704.75C777.333,694.25 772,682 767,668C763,681.667 758.083,693.667 752.25,704C746.417,714.333 739.5,723.5 731.5,731.5C723.5,739.5 714.333,746.5 704,752.5C693.667,758.5 681.833,763.667 668.5,768C695.5,775.667 716.833,787.583 732.5,803.75C748.167,819.917 760,841.333 768,868C773,853.667 778.25,841.333 783.75,831C789.25,820.667 795.833,811.667 803.5,804C811.167,796.333 820.083,789.667 830.25,784C840.417,778.333 852.833,773 867.5,768Z" fill="context-fill" fill-opacity="context-fill-opacity">
  </path>
</svg>

<svg xmlns="http://www.w3.org/2000/svg" width="16" height="16" viewBox="64 64 896 896"><path fill="context-fill" fill-opacity="context-fill-opacity" d="M64 383q0-21 12.25-38.5t32.25-24l89-28.5q16-5.5 30.5-15t26-21q25-25 35.5-57l29-89.5q6.5-20 24.25-32.75T381.5 64t38.75 12T445 108.5l29 88.5q10.5 33 36 58.5 24.5 25 58.5 36l88 29q21.5 7 34.5 24t13 40q0 20.5-12.5 38.25t-32 24.25l-89 29q-33 10.5-58.5 36-16 16-25.75 36.5t-16.5 42T457 632.25t-15 36.25-22.5 25.75T384 704q-21 0-38.75-12.25T321 659.5l-29-89q-4-12.5-9.75-23.75a125 125 0 0 0-13.75-21.25q-17-21.5-38.75-34T185.5 471 141 457.25t-39-14.5-27.5-22.25T64 383m574.5 3.5q-38-14.5-72.75-26.75t-64.25-30-52.25-44T413 217l-28.5-88-33.5 88q-9 24-21 44.5t-30 39q-17 17-38.25 30.75T217.5 352.5L129 381q37.5 14.5 72 26.75t63.5 30T316.25 482t36.25 68.5l28.5 88 33.5-88q18.5-48.5 51.75-84T550 415ZM576 766q0-15.5 10-28.5t24.5-18l49.5-16q17-5.5 26.5-17t15.25-25.75 9.75-29.25 10.25-27.25 16.5-20.25 28.75-8q16 0 29.75 9.5t18.75 25q3 10 5.75 20.25a254 254 0 0 0 6.25 20 138 138 0 0 0 8.5 19 72 72 0 0 0 12.5 16.75q8 8.5 19.5 13.25t24 8.75a4417 4417 0 0 1 24.75 8q12.25 4 21.75 10.25t15.5 16 6 24.75q0 16.5-9.25 30t-25.25 19q-9.5 3-19.75 5.75a320 320 0 0 0-20.5 6.25Q875 832 865.75 837A72 72 0 0 0 849 849.5q-12 12.5-17.75 31.25a936 936 0 0 1-12 36.5Q813 935 802 947.5T768 960q-16 0-29.75-9.5t-18.75-25q-3-9-5.75-19.5t-6.25-20.75a138 138 0 0 0-8.5-19.75q-5-9.5-12-16.5-9-8.5-20.5-13.5a224 224 0 0 0-23.75-8.75q-12.25-3.75-24.25-7.5t-21.5-10-15.25-16.5T576 766m291.5 2q-21.5-6.5-37.25-15.25T803 732.25t-20-27.5T767 668q-6 20.5-14.75 36t-20.75 27.5-27.5 21-35.5 15.5q40.5 11.5 64 35.75T768 868q7.5-21.5 15.75-37t19.75-27 26.75-20 37.25-16"/></svg>
